!!!!SEGMENT: Lfg2003-Vide_Domine_afflictionem_nostram.krn
!!!id: Lfg2003
!!!AGN: Motet
!!!voices: 4
!!!COM: Jean de la Fage
!!!OTL: Vide, Domine, afflictionem nostram
**kern	**kern	**kern	**kern
*part4	*part3	*part2	*part1
*staff4	*staff3	*staff2	*staff1
*I"Bassus	*I"Tenor	*I"Altus	*I"Superius
*I'B	*I'T	*I'A	*I'S
*clefF4	*clefGv2	*clefGv2	*clefG2
*k[]	*k[]	*k[]	*k[]
*C:	*C:	*C:	*C:
*M2/1	*M2/1	*M2/1	*M2/1
*met(C|)	*met(C|)	*met(C|)	*met(C|)
!!section: Prima pars: Vide, Domine, afflictionem nostram
!!!OMD: Prima pars: Vide, Domine, afflictionem nostram
0E	0r	0e	0e
=1	=1	=1	=1
1E	0r	1e	1g
[1F	.	[1c	[1a
=2	=2	=2	=2
1F]	0r	1c]	1a]
1F	.	1d	1a
=3	=3	=3	=3
0E	0B	[0e	0g
=4	=4	=4	=4
1E	1B	0e_	2r
.	.	.	2g
[1AA	[1c	.	2a
.	.	.	[2cc
=5	=5	=5	=5
1AA]	1c]	0e_	4cc]
.	.	.	4b
.	.	.	4a
.	.	.	4g
1AA	1c	.	1a
=6	=6	=6	=6
0E;	0B;	0e;]	0g;
=7	=7	=7	=7
0E	0B	0e	0g
=8	=8	=8	=8
1C	1c	1e	1g
1E	1B	1e	1g
=9	=9	=9	=9
1.F	0A	1d	1.a
.	.	1c	.
2E	.	.	2g
=10	=10	=10	=10
0D	2.A	0d	1f
.	8GL	.	.
.	8AJ	.	.
.	2B	.	1f
.	[2A	.	.
=11	=11	=11	=11
1E	2A]	1B	[0e
.	2G#i	.	.
1AA	1A	2r	.
.	.	[2A	.
=12	=12	=12	=12
2r	1r	2A]	0e]
1AA	.	2A	.
.	2r	2.c	.
2AA	[2E	.	.
.	.	4d	.
=13	=13	=13	=13
2.C	2E]	[0e	2r
.	2E	.	1e
4D	.	.	.
[1E	2.G	.	.
.	.	.	2e
.	4A	.	.
=14	=14	=14	=14
1E]	2B	0e]	2.g
.	1E	.	.
.	.	.	4a
2r	.	.	[1b
[2E	2E	.	.
=15	=15	=15	=15
2E]	2.G	2r	1b]
2E	.	1e	.
.	4A	.	.
2E	1B	.	2r
2E	.	2e	[2g
=16	=16	=16	=16
2C	2E	2e	2g]
2C	1c	2e	2g
1F	.	1A	2a
.	4B	.	2a
.	4A	.	.
=17	=17	=17	=17
1E	2B	2.e	2g
.	2.c	.	2g
.	.	4d	.
1r	.	4e	[1cc
.	4B	4f	.
.	4A	[2g	.
.	4G	.	.
=18	=18	=18	=18
1r	1A	2g]	1cc]
.	.	2f#i	.
1E	2G	1g	1b
.	2G	.	.
=19	=19	=19	=19
1.F	1.A	2.f	1r
.	.	4e	.
.	.	2d	1a
2E	2G	2c	.
=20	=20	=20	=20
1D	1F	1B	1b
1C	[1E	[1A	1cc
=21	=21	=21	=21
0BB	2E]	2A]	1dd
.	4D	4G#i	.
.	4C	4F#i	.
.	1D	1G#i	1b
=22	=22	=22	=22
0AA	1E	1.A	1.cc
.	[1F	.	.
.	.	2B	2b
=23	=23	=23	=23
0r	1F]	2c	1a
.	.	2d	.
.	1E	[1e	1g
=24	=24	=24	=24
0r	1r	2e]	1f
.	.	4d	.
.	.	4c	.
.	1D	1d	1f
=25	=25	=25	=25
1r	1.A	[0e	1e
1AA	.	.	2r
.	2A	.	2e
=26	=26	=26	=26
1.E	2.G	0e]	1.g
.	4A	.	.
.	2B	.	.
2E	2c	.	2g
=27	=27	=27	=27
2.D	0d	0r	1f
4E	.	.	.
2F	.	.	1f
2G	.	.	.
=28	=28	=28	=28
0A	1r	0r	1e
.	1D	.	2r
.	.	.	[2a
=29	=29	=29	=29
1r	1.A	1r	2a]
.	.	.	2b
1AA	.	1e	2cc
.	2A	.	2a
=30	=30	=30	=30
1.E	2.G	1.g	1b
.	4A	.	.
.	2B	.	1e
2E	2c	2g	.
=31	=31	=31	=31
2.D	0d	1f	0r
4E	.	.	.
2F	.	1f	.
2G	.	.	.
=32	=32	=32	=32
0A	2r	[0e	1r
.	2.A	.	.
.	.	.	2.e
.	4B	.	.
.	[2c	.	.
.	.	.	4f
=33	=33	=33	=33
0E	2c]	0e]	2g
.	4B	.	1a
.	4A	.	.
.	1B	.	.
.	.	.	2g#i
=34	=34	=34	=34
1r	2A	1r	0a
.	2.d	.	.
2r	.	2r	.
.	4e	.	.
[2D	[2f	[2A	.
=35	=35	=35	=35
2D]	2f]	2A]	[0a
2D	4e	1d	.
.	4d	.	.
1A	1e	.	.
.	.	2c	.
=36	=36	=36	=36
2D	1d	1d	1a]
2d	.	.	.
2B	1r	2d	1g
[2c	.	[2e	.
=37	=37	=37	=37
4c]	1r	4e]	1.cc
4B	.	4f	.
4A	.	1g	.
4G	.	.	.
1A	1c	.	.
.	.	2f#i	4b
.	.	.	4a
=38	=38	=38	=38
1G	1d	[0g	[0b
[1E	1e	.	.
=39	=39	=39	=39
2E]	1.e	0g]	0b]
2F	.	.	.
[1G	.	.	.
.	4d	.	.
.	4c	.	.
=40	=40	=40	=40
2G]	1d	1r	0g
2F	.	.	.
1E	1e	2r	.
.	.	[2g	.
=41	=41	=41	=41
1D	1A	2g]	1a
.	.	2f	.
1r	1r	2.e	1b
.	.	4d	.
=42	=42	=42	=42
0r	1r	4c	2e
.	.	4B	.
.	.	1A	2f
.	1c	.	2e
.	.	2c	[2a
=43	=43	=43	=43
2r	1d	1B	2a]
1G	.	.	2g#i
.	1d	1A	1a
2F	.	.	.
=44	=44	=44	=44
2.E	1e	0r	0r
4D	.	.	.
4C	2E	.	.
4BB	.	.	.
[2AA	2F	.	.
=45	=45	=45	=45
2AA]	2E	0r	1r
2C	1A	.	.
1BB	.	.	2r
.	2G#i	.	[2dd
=46	=46	=46	=46
1AA	1A	2r	2dd]
.	.	2c	2cc
1r	1r	2d	2.b
.	.	[2e	.
.	.	.	4a
=47	=47	=47	=47
0r	0r	4e]	4g
.	.	4d	4f
.	.	4c	1e
.	.	4B	.
.	.	2A	.
.	.	[2e	2g
=48	=48	=48	=48
1r	1r	2e]	1f
.	.	2d	.
1AA	1c	2e	2e
.	.	2e	2a
=49	=49	=49	=49
1.E	1.B	1.e	1.g
2AA	2A	2c	2e
=50	=50	=50	=50
0AA	[0A	0c	0e
=51	=51	=51	=51
1r	0A]	0r	1e
[1D	.	.	1f
=52	=52	=52	=52
1D]	1r	0r	2d
.	.	.	2.f
1C	[1A	.	.
.	.	.	4e
.	.	.	[2e
=53	=53	=53	=53
1F	1A]	0r	2e]
.	.	.	2d
1E	1G	.	[1e
=54	=54	=54	=54
4AA	1c	0r	1e]
4BB	.	.	.
4C	.	.	.
4D	.	.	.
2E	2B	.	1r
[2F	[2A	.	.
=55	=55	=55	=55
4F]	4A]	0r	0r
4E	4G	.	.
1E	4F	.	.
.	4E	.	.
.	1F	.	.
2D	.	.	.
=56	=56	=56	=56
2.G	2.E	0r	0r
4F	4F	.	.
2E	4G	.	.
.	4A	.	.
[2D	[2B	.	.
=57	=57	=57	=57
4D]	4B]	0d	0r
4C	4A	.	.
4BB	1A	.	.
4AA	.	.	.
1BB	.	.	.
.	2G#i	.	.
=58	=58	=58	=58
1AA	1A	1c	0a
1r	1D	1f	.
=59	=59	=59	=59
0r	1E	1e	1g
.	1r	4A	1cc
.	.	4B	.
.	.	4c	.
.	.	4d	.
=60	=60	=60	=60
0r	0r	4e	2b
.	.	4d	.
.	.	2.f	2.a
.	.	4e	4g
.	.	[2e	4f
.	.	.	4e
=61	=61	=61	=61
0r	0r	2e]	1f
.	.	2d	.
.	.	2.g	2.e
.	.	4f	4f
=62	=62	=62	=62
0r	0r	2e	4g
.	.	.	4a
.	.	2.d	2.b
.	.	4c	4a
.	.	4B	[2a
.	.	4A	.
=63	=63	=63	=63
0r	0r	1B	2a]
.	.	.	2g
.	.	2A	2.cc
.	.	2c	.
.	.	.	4b
=64	=64	=64	=64
0r	0r	2d	2a
.	.	1e	2g
.	.	.	1f
.	.	2d	.
=65	=65	=65	=65
[0C	[0c	1e	1e
.	.	1r	1r
=66	=66	=66	=66
1C]	1c]	1.e	1.g
1C	1c	.	.
.	.	2e	2g
=67	=67	=67	=67
1.G	1.B	1.d	1g
.	.	.	1g
2G	2B	2e	.
=68	=68	=68	=68
1F	1c	1f	1a
1G	1B	1d	1g
=69	=69	=69	=69
0C	1c	1e	1g
.	1c	1e	1g
=70	=70	=70	=70
1.F	2.A	0f	0a
.	4B	.	.
.	2c	.	.
2D	2d	.	.
=71	=71	=71	=71
0D	2A	2f	2a
.	2.f	2d	2.dd
.	.	1f	.
.	4e	.	4cc
.	4d	.	4b
.	4c	.	4a
=72	=72	=72	=72
0E	4B	[0e	2g
.	4A	.	.
.	2c	.	1a
.	1B	.	.
.	.	.	2g#i
=73	=73	=73	=73
[0AA	0A	0e]	0a
=74	=74	=74	=74
0AA]	1r	[0e	0r
.	1E	.	.
=75	=75	=75	=75
1r	1G	0e]	0r
1AA	1A	.	.
=76	=76	=76	=76
1C	2G	1r	0r
.	1A	.	.
1D	.	1A	.
.	4G	.	.
.	4F	.	.
=77	=77	=77	=77
1C	1E	1c	2r
.	.	.	1cc
1r	2r	1d	.
.	2G	.	2b
=78	=78	=78	=78
2r	2A	1c	1cc
1C	1G	.	.
.	.	1r	1a
2D	2F	.	.
=79	=79	=79	=79
1E	1G	2r	1g
.	.	1c	.
1F	2r	.	1r
.	2A	2d	.
=80	=80	=80	=80
1E	2B	1e	0r
.	2c	.	.
1r	1d	1f	.
=81	=81	=81	=81
2r	2c	0e	1g
1E	1B	.	.
.	.	.	2g
2F	2A	.	[2a
=82	=82	=82	=82
1G	1B	2d	4a]
.	.	.	4g
.	.	1e	1g
1A	1c	.	.
.	.	4d	2f#i
.	.	4c	.
=83	=83	=83	=83
0G	1B	2e	0g
.	.	2d	.
.	2.E	1B	.
.	4D	.	.
=84	=84	=84	=84
2r	4E	0c	1e
.	4F	.	.
1C	1G	.	.
.	.	.	2e
2D	2F	.	[2f
=85	=85	=85	=85
1E	1G	2B	4f]
.	.	.	4e
.	.	1c	1e
1F	1A	.	.
.	.	4B	2d
.	.	4A	.
=86	=86	=86	=86
1E	1.G	2c	1e
.	.	1B	.
1E	.	.	1b
.	2E	[2e	.
=87	=87	=87	=87
1r	0E	4e]	2b
.	.	4d	.
.	.	4c	2.cc
.	.	4B	.
1AA	.	1A	.
.	.	.	4b
.	.	.	4cc
.	.	.	4a
=88	=88	=88	=88
1.E	1r	1G	2b
.	.	.	2b
.	1E	1r	1e
2E	.	.	.
=89	=89	=89	=89
1D	1.B	0r	0r
1E	.	.	.
.	2B	.	.
=90	=90	=90	=90
1F	1A	1A	0r
[1E	1B	[1e	.
=91	=91	=91	=91
1E]	1c	2e]	1e
.	.	2e	.
1r	1B	1d	[1b
=92	=92	=92	=92
0r	0r	1e	2b]
.	.	.	2b
.	.	1f	1a
=93	=93	=93	=93
1r	0r	[0e	1b
2r	.	.	1cc
2AA	.	.	.
=94	=94	=94	=94
1.E	1r	0e]	2.b
.	.	.	4g
.	2r	.	2b
2E	2E	.	2cc
=95	=95	=95	=95
1D	1.B	0r	2.dd
.	.	.	4cc
1E	.	.	4b
.	.	.	4a
.	2B	.	2g
=96	=96	=96	=96
1F	1A	2r	1a
.	.	2A	.
[1E	1B	[1e	1g
=97	=97	=97	=97
1E]	1c	2e]	2r
.	.	2e	2e
1r	1B	1d	[1b
=98	=98	=98	=98
0r	0r	1e	2b]
.	.	.	2b
.	.	1f	1a
=99	=99	=99	=99
0r	0r	1.e	1b
.	.	.	1cc
.	.	4d	.
.	.	4c	.
=100	=100	=100	=100
[0E	[0B	1g	1b
.	.	[1G	[1e
=101	=101	=101	=101
1E]	1B]	1G]	1e]
1AA	1c	1A	1e
=102	=102	=102	=102
0AA	1c	1A	0e
.	2A	2r	.
.	2c	2A	.
=103	=103	=103	=103
1r	2B	2G	0r
.	1c	2E	.
1A	.	1F	.
.	4B	.	.
.	4A	.	.
=104	=104	=104	=104
2G	1B	2E	1r
2E	.	2e	.
1F	1A	2c	1a
.	.	2d	.
=105	=105	=105	=105
2E	0r	1e	2g
2C	.	.	2e
2D	.	1A	1f
2D	.	.	.
=106	=106	=106	=106
1AA	1A	1c	2e
.	.	.	2cc
1r	2G	2d	2b
.	2E	[2e	2g
=107	=107	=107	=107
0r	1F	2e]	1a
.	.	2d	.
.	2E	1e	1g
.	[2e	.	.
=108	=108	=108	=108
1A	2e]	2r	1cc
.	4d	2A	.
.	4c	.	.
2G	2d	2B	2b
2E	[2e	[2c	2g
=109	=109	=109	=109
1F	2e]	2c]	1a
.	2d	4B	.
.	.	4A	.
2E	1e	2B	2g
2C	.	2c	2e
=110	=110	=110	=110
2D	1A	2.F	1f
2D	.	.	.
.	.	4G	.
2AA	[1c	[1A	1e
2AA	.	.	.
=111	=111	=111	=111
1E	2c]	2A]	[0e
.	4B	4G#i	.
.	4A	4F#i	.
1E	2B	1G#i	.
.	2c	.	.
=112	=112	=112	=112
1AA	0c	0A	0e_
1r	.	.	.
=113	=113	=113	=113
0C	1r	1G	0e]
.	1G	1r	.
=114	=114	=114	=114
1E	1G	1c	0r
1F	1A	2c	.
.	.	[2d	.
=115	=115	=115	=115
1G	1B	2d]	0r
.	.	1e	.
2G	2B	.	.
[2A	[2c	[2f	.
=116	=116	=116	=116
2A]	2c]	2f]	0r
4G	4B	4e	.
4F	4A	4d	.
2G	2B	2e	.
[2A	[2c	[2f	.
=117	=117	=117	=117
4A]	4c]	4f]	0r
4G	4B	4e	.
2E	2G	1e	.
2F	2A	.	.
2G	2B	2d	.
=118	=118	=118	=118
1C	1c	1e	0g
1r	2B	2d	.
.	[2c	[2e	.
=119	=119	=119	=119
0r	2c]	2e]	1a
.	1d	1f	.
.	.	.	1b
.	[2e	[2g	.
=120	=120	=120	=120
0r	2e]	2g]	1cc
.	4d	4f	.
.	4c	4e	.
.	2d	2f	2b
.	[2e	[2g	[2cc
=121	=121	=121	=121
0r	4e]	4g]	4cc]
.	4d	4f	4b
.	2B	2d	1b
.	2c	2e	.
.	2d	2f	2a
=122	=122	=122	=122
0r	1G	1g	1b
.	1r	1r	1r
=123	=123	=123	=123
3%4E	3%4B	3%4e	3%4g
3%2E	3%2B	3%2e	3%2g
=124	=124	=124	=124
3%2C	3%2c	3%2e	3%2g
3%4F	3%4A	3%2c	3%4a
.	.	3%2d	.
=125	=125	=125	=125
3%4E	3%4B	3%4e	3%4g
3%2r	3%2r	3%2r	3%2r
=126	=126	=126	=126
3%4E	3%4B	3%4e	3%4g
3%2E	3%2B	3%2e	3%2g
=127	=127	=127	=127
3%2C	3%2c	3%2e	3%2g
3%4F	3%4A	3%2c	3%4a
.	.	3%2d	.
=128	=128	=128	=128
1E	1B	1e	1g
1E	1G	1g	1b
=129	=129	=129	=129
1F	1c	1f	2a
.	.	.	2cc
1D	1d	1f	2b
.	.	.	[2a
=130	=130	=130	=130
1E	1B	1e	2a]
.	.	.	4g#i
.	.	.	4f#i
1E	1B	1e	2g#i
.	.	.	2a
=131	=131	=131	=131
0AA	0A	1c	1a
.	.	1r	1r
=132	=132	=132	=132
1r	1r	0c	0e
1AA	1A	.	.
=133	=133	=133	=133
1C	1G	1c	1e
1C	2G	1c	1e
.	[2A	.	.
=134	=134	=134	=134
1.D	4A]	1A	1f
.	4G	.	.
.	4F	.	.
.	4E	.	.
.	2F	1B	1d
2D	2F	.	.
=135	=135	=135	=135
0C;	0G;	0c;	0e;
=136	=136	=136	=136
0C	0c	0e	0g
=137	=137	=137	=137
1E	1B	1e	1g
1E	2B	1e	1g
.	[2c	.	.
=138	=138	=138	=138
1.F	4c]	1c	1.a
.	4B	.	.
.	4A	.	.
.	4G	.	.
.	2A	1d	.
2F	2A	.	2a
=139	=139	=139	=139
0E;	0B;	0e;	0g;
=140	=140	=140	=140
0E	0e	0g	0b
=141	=141	=141	=141
1G	1d	1g	1b
1G	2d	1g	1b
.	[2e	.	.
=142	=142	=142	=142
1.A	4e]	1e	1cc
.	4d	.	.
.	4c	.	.
.	4B	.	.
.	1c	1f	1a
2A	.	.	.
=143	=143	=143	=143
[0G	1d	[0g	0b
.	1e	.	.
=144	=144	=144	=144
0G]	0d	0g]	1r
.	.	.	1b
=145	=145	=145	=145
0r	0r	1r	1cc
.	.	1e	2b
.	.	.	[2cc
=146	=146	=146	=146
2r	0r	1f	2cc]
2D	.	.	4b
.	.	.	4a
2E	.	2e	2g
2D	.	[2f	2a
=147	=147	=147	=147
2.F	0r	2f]	1f
.	.	4e	.
4G	.	4d	.
2A	.	2c	2e
2D	.	2d	[2a
=148	=148	=148	=148
1E	1B	1B	2a]
.	.	.	2g#i
1r	1c	1A	1a
=149	=149	=149	=149
1E	2B	0r	1e
.	1c	.	.
1F	.	.	1r
.	4B	.	.
.	4A	.	.
=150	=150	=150	=150
2E	2G	0r	0r
1F	2A	.	.
.	1F	.	.
4E	.	.	.
4D	.	.	.
=151	=151	=151	=151
2C	2E	0r	1r
2D	1A	.	.
1BB	.	.	1b
.	2G#i	.	.
=152	=152	=152	=152
2AA	1A	0r	1cc
2A	.	.	.
2G	2r	.	2b
[2A	[2A	.	[2cc
=153	=153	=153	=153
2A]	4A]	0r	2cc]
.	4B	.	.
4G	4c	.	4b
4F	4d	.	4a
2E	2e	.	2g
[2D	[2f	.	2a
=154	=154	=154	=154
4D]	2f]	0r	1f
4E	.	.	.
4F	4e	.	.
4G	4d	.	.
2A	2c	.	2e
2D	2d	.	[2a
=155	=155	=155	=155
1E	1B	2r	2a]
.	.	2e	2g
2r	1A	1e	1cc
2AA	.	.	.
=156	=156	=156	=156
2BB	2G	2d	2b
2C	2E	2c	1a
2D	2F	1B	.
2E	2G	.	2g
=157	=157	=157	=157
2.AA	2E	1A	2a
.	2A	.	2.cc
4BB	.	.	.
4C	2G	1r	.
4D	.	.	4b
[2E	2E	.	2g
=158	=158	=158	=158
2E]	1F	2r	1a
2D	.	2d	.
2E	1E	2B	[1g
4C	.	[2c	.
4D	.	.	.
=159	=159	=159	=159
4E	0r	2c]	1g]
4F	.	.	.
1G	.	2B	.
.	.	1A	1r
2F#i	.	.	.
=160	=160	=160	=160
1G	1r	0G	2r
.	.	.	2b
1C	2r	.	2.cc
.	2e	.	.
.	.	.	4b
=161	=161	=161	=161
1D	2.f	0r	2a
.	.	.	2g
.	4e	.	.
1D	2d	.	1f
.	2c	.	.
=162	=162	=162	=162
1E	1B	2r	1e
.	.	2B	.
2AA	1A	2.c	1r
[2F	.	.	.
.	.	4B	.
=163	=163	=163	=163
4F]	1r	2A	2r
4E	.	.	.
1E	.	2G	2b
.	2r	1F	2cc
2D	2d	.	2dd
=164	=164	=164	=164
1E	2B	2E	1g
.	2c	2e	.
1r	2.d	2.f	1r
.	4c	4e	.
=165	=165	=165	=165
1r	2B	2d	0r
.	1A	2c	.
2r	.	1B	.
2E	2G#i	.	.
=166	=166	=166	=166
2.F	2.A	2A	0r
.	.	2c	.
4E	4G	.	.
2D	2F	2B	.
2C	[2E	[2A	.
=167	=167	=167	=167
1BB	2E]	2A]	2r
.	2D	2G#i	2b
1AA	1E	2.A	2.cc
.	.	4B	4b
=168	=168	=168	=168
0r	2r	4c	2a
.	.	4d	.
.	2G	1e	2g
.	2A	.	1f
.	2B	2d	.
=169	=169	=169	=169
2r	1c	1e	1e
2A	.	.	.
2.c	2A	2e	1a
.	[2c	[2f	.
4B	.	.	.
=170	=170	=170	=170
2A	4c]	2f]	2f
.	4B	.	.
2G	1B	1e	2g
1F	.	.	1a
.	2A	2d	.
=171	=171	=171	=171
*M3/1	*M3/1	*M3/1	*M3/1
*met(3)	*met(3)	*met(3)	*met(3)
0E	0B	0e	0g
1r	1r	1r	1r
=172	=172	=172	=172
0E	0G	0B	0e
1E	1G	1B	1e
=173	=173	=173	=173
1C	1G	1c	1e
0D	0F	1A	0f
.	.	1B	.
=174	=174	=174	=174
1C	1G	1c	1e
0F	0A	0d	1f
.	.	.	1a
=175	=175	=175	=175
0E	0B	0e	0g
1r	1r	1r	1r
=176	=176	=176	=176
0E	0G	0B	0e
1E	1G	1B	1e
=177	=177	=177	=177
1C	1G	1c	1e
0D	0F	1A	0f
.	.	1B	.
=178	=178	=178	=178
1C	1G	1c	1e
0F	0A	0d	1f
.	.	.	1a
=179	=179	=179	=179
*M2/1	*M2/1	*M2/1	*M2/1
*met(C|)	*met(C|)	*met(C|)	*met(C|)
[0E	2B	[0el	2.g
.	2c	.	.
.	.	.	4a
.	2B	.	4b
.	.	.	4g
.	[2e	.	2cc
=180	=180	=180	=180
0E]	2e]	0e_	4b
.	.	.	4a
.	4d	.	1a
.	4c	.	.
.	1B	.	.
.	.	.	2g#i
=181	=181	=181	=181
00AAl	00Al	00e]	00al
==	==	==	==
*-	*-	*-	*-
!!!system-decoration: [*]
!!!RDF**kern: i = editorial accidental
!!!RDF**kern: l = terminal long
!!!ENC: Benjamin Ory
!!!END: 2024/4/20
!!!EED: Benjamin Ory
!!!EEV: 2024/4/20
!!!YEC: Copyright 2024 Benjamin Ory, All Rights Reserved
!!!ONB: Translated from MusicXML on 2024/4/20
